X:10
T:Galloway Midges
M:4/4
L:1/8
R:Reel
C:Gris Sanderson
Q:450
N:We played at a festival in Galloway in midgey high season. It 
N:was ok playing because there was a fan (the blowing sort) on 
N:stage to keep them off, but they were vicious the rest of the 
N:time. The only thing that kept them off were paper plates and 
N:net curtains. This tune is on the Spyka album.
K:Ador
A,2A,G, A,CDC|EG,A,E DG,B,G,|A,2A,G, A,CDE|BB-BA- AFED|
A,2A,G, A,CDC|EG,A,E DEGc|decA EA-AB-|BGGB AFED:|
|:~B2AB dBAd|Be-eB dBAd|BeeB dBAf-|fedf edBA:|
|:EB-Bd ADAD|EBBd ADAD|EB-Bd ADAD|BAGB AGED|
EBBd ADAD|EB-Bd ADAD|EAAG FEFD|EDEG DECG,||
